X:1
T:The Smuggler's
R:reel
M:4/4
L:1/8
K:Edor
|:e2e2 E3F|GFGA BABc|d2d2 D3E|FDFA BA (3Bcd|
|e2e2 E3F|GFGA BABc|dBcA BAFG|DEED E4:|
|:Beed ~e2ef|geaf gfed|Bddc ~d2dB|ABde fagf|
|eB~B2 gB~B2|aB~B2 bB~B2|gfed BA (3Bcd|egfd e4:|